src/styles/icons/size(28*28)(30*30)/bin_28dp.svg

<svg width="28" height="28" fill="current" xmlns="http://www.w3.org/2000/svg"><path d="M20.25 7.6H26v2.3h-2.3v14.95c0 .305-.1212.5975-.3368.8132-.2157.2156-.5082.3368-.8132.3368H6.45c-.305 0-.59751-.1212-.81317-.3368C5.42116 25.4475 5.3 25.155 5.3 24.85V9.9H3V7.6h5.75V4.15c0-.305.12116-.59751.33683-.81317C9.30249 3.12116 9.595 3 9.9 3h9.2c.305 0 .5975.12116.8132.33683.2156.21566.3368.50817.3368.81317V7.6Zm1.15 2.3H7.6v13.8h13.8V9.9ZM11.05 5.3v2.3h6.9V5.3h-6.9Z"/></svg>

<svg width="28" height="28" viewBox="0 0 28 28" fill="current" xmlns="http://www.w3.org/2000/svg">
<path d="M20.25 7.6H26V9.9H23.7V24.85C23.7 25.155 23.5788 25.4475 23.3632 25.6632C23.1475 25.8788 22.855 26 22.55 26H6.45C6.145 26 5.85249 25.8788 5.63683 25.6632C5.42116 25.4475 5.3 25.155 5.3 24.85V9.9H3V7.6H8.75V4.15C8.75 3.845 8.87116 3.55249 9.08683 3.33683C9.30249 3.12116 9.595 3 9.9 3H19.1C19.405 3 19.6975 3.12116 19.9132 3.33683C20.1288 3.55249 20.25 3.845 20.25 4.15V7.6ZM21.4 9.9H7.6V23.7H21.4V9.9ZM11.05 5.3V7.6H17.95V5.3H11.05Z" fill="current"/>
</svg>
